X:123
T:Lucy Campbell
R:reel
H:Originally Scottish: "Miss Lucy Campbell"
Z:id:hn-reel-123
M:C|
K:D
dB|:ADFD A2 dB|A2FA BE~E2|AFAB defe|dBAF AD~D2:|
dBAB defe|d2cA BE~E2|dBAB defe|dBAF AD~D2|
dBAB defe|dB~B2 gB~B2|dBAB defe|dBAF AD~D2||
~a3f defg|a2fa bgeg|~a3f defe|dBAF AD~D2|
~a3f defg|a2fa bgef|~g3e ~f3e|dBAF AD~D2||
|:df~f2 dfef|df~f2 afef|1 dffe ~f3e|dBAF AD~D2:|2 ~g3e ~f3e|dBAF AD~D2||

